svgs/sharp-solid/radio.svg

<svg xmlns="http://www.w3.org/2000/svg" viewBox="0 0 512 512"><!--! Font Awesome Pro 6.4.2 by @fontawesome - https://fontawesome.com License - https://fontawesome.com/license (Commercial License) Copyright 2023 Fonticons, Inc. --><path d="M485.7 55.3L509 49.6 497.6 3 474.3 8.7l-456 112L0 125.2V128v16V304v24V512H512V128H189.8l296-72.7zM368 240a80 80 0 1 1 0 160 80 80 0 1 1 0-160zM80 240H96h96 16v32H192 96 80V240zM64 304H80 208h16v32H208 80 64V304zm16 64H96h96 16v32H192 96 80V368z"/></svg>

<svg xmlns="http://www.w3.org/2000/svg" viewBox="0 0 512 512"><!--! Font Awesome Pro 6.6.0 by @fontawesome - https://fontawesome.com License - https://fontawesome.com/license (Commercial License) Copyright 2024 Fonticons, Inc. --><path d="M485.7 55.3L509 49.6 497.6 3 474.3 8.7l-456 112L0 125.2 0 128l0 16L0 304l0 24L0 512l512 0 0-384-322.2 0 296-72.7zM368 240a80 80 0 1 1 0 160 80 80 0 1 1 0-160zM80 240l16 0 96 0 16 0 0 32-16 0-96 0-16 0 0-32zM64 304l16 0 128 0 16 0 0 32-16 0L80 336l-16 0 0-32zm16 64l16 0 96 0 16 0 0 32-16 0-96 0-16 0 0-32z"/></svg>
